src/1-subject/wait.svg

<svg width="1300" height="1000" viewBox="0 0 1300 1000" fill="none" xmlns="http://www.w3.org/2000/svg"><path d="M560.09 881.232 546 875l1-158s-11.065-146-11.5-157c-3.5-88.5-16-197.5-17.5-203.5s-7.5-15.5-19-15.5c-41.503 0-54.165 15.5-69 46-17.528 36.035-29 130-29 130l10 61.5 13.841 32.65A21.896 21.896 0 0 0 445 624.5l2.5 119-16.635 133.554c-.459 3.689 2.418 6.946 6.135 6.946v16h135v-.477a20 20 0 0 0-11.91-18.291Z" fill="#fff"/><path d="M559.791 886.456 539 877.94 541 717l-10-141-12 141-14.5 158 15.571 6.038a15 15 0 0 1 9.546 13.019L530 900h36v-4.29a10 10 0 0 0-6.209-9.254Z" fill="#000"/><path d="M518.211 887.016 497 876.978l16-160.08 13.5-156.596c-3.497-142.189-12.048-190.328-17.812-206.533-2.269-6.38-9.33-8.959-16.098-8.737-13.597.447-37.553 5.812-53.591 35.185C420.321 414.423 407 516.777 407 516.777l9.5 60.034 11.953 28.141a19.51 19.51 0 0 0 17.956 11.881.975.975 0 0 0 .969-1.084L443 576.811l-7-60.034 34.658-98.088a1.452 1.452 0 0 1 2.752.917l-29.973 95.776a7.508 7.508 0 0 0-.319 2.853L452 627.83l2 115.583-15.346 128.104a4.88 4.88 0 0 0 4.846 5.461V900H524l-.069-4.112a10 10 0 0 0-5.72-8.872Z" fill="#000"/><path d="M480.252 340.974c4.039 1.123 11.388 1.007 13.3.844 0 0 8.607-.826 13.456-3.185 5.465-2.658 8.429-5.047 11.84-10.03 2.33-3.404 3.886-9.07 4.553-11.861.263-1.104.414-2.226.505-3.357l2.054-25.597s.195-3.68-.018-6.021c-.508-5.569-1.547-8.773-4.25-13.682-2.775-5.042-5.046-7.672-9.627-11.203-4.884-3.765-8.301-5.297-14.325-6.746-4.678-1.124-7.491-1.345-12.293-.964-5.135.625-7.024 1.117-11.806 3.073-4.776 2.072-9.544 5.422-13.069 9.142-3.525 3.719-5.85 7.96-7.536 12.705-1.687 4.745-2.243 9.232-1.809 14.211.165 1.878.568 4.104 1.028 5.933l7.243 24.455a24.306 24.306 0 0 0 1.316 3.504c1.319 2.789 4.083 8.279 6.538 10.873 3.37 3.561 8.069 6.563 12.9 7.906Z" fill="#fff"/><path d="M481.852 335.061c3.397.989 9.571.907 11.177.77 0 0 7.23-.695 11.298-2.737 4.584-2.3 7.069-4.372 9.921-8.701 1.905-2.892 3.183-7.667 3.755-10.149.247-1.07.385-2.159.466-3.255l1.645-22.116s.154-3.204-.031-5.243c-.442-4.85-1.324-7.643-3.607-11.925-2.346-4.397-4.261-6.693-8.12-9.781-4.114-3.291-6.989-4.634-12.055-5.912-3.933-.991-6.297-1.191-10.331-.872-4.313.53-5.899.953-9.911 2.644-4.008 1.791-8.005 4.695-10.957 7.924s-4.894 6.916-6.298 11.043c-1.404 4.127-1.859 8.033-1.481 12.37.143 1.635.488 3.574.879 5.168l6.1 21.134a23.955 23.955 0 0 0 1.247 3.408c1.145 2.48 3.421 7.098 5.443 9.311 2.841 3.11 6.797 5.736 10.86 6.919Z" fill="#000"/></svg>

<svg width="1300" height="1000" viewBox="0 0 1300 1000" fill="none" xmlns="http://www.w3.org/2000/svg">
<path d="M560.09 881.232L546 875L547 717C547 717 535.935 571 535.5 560C532 471.5 519.5 362.5 518 356.5C516.5 350.5 510.5 341 499 341C457.497 341 444.835 356.5 430 387C412.472 423.035 401 517 401 517L411 578.5L424.841 611.15C428.272 619.243 436.21 624.5 445 624.5L447.5 743.5L430.865 877.054C430.406 880.743 433.283 884 437 884V900H572V899.523C572 891.606 567.33 884.434 560.09 881.232Z" fill="white"/>
<path d="M559.791 886.456L539 877.94L541 717L531 576L519 717L504.5 875L520.071 881.038C525.516 883.149 529.241 888.229 529.617 894.057L530 900H566V895.71C566 891.651 563.547 887.995 559.791 886.456Z" fill="black"/>
<path d="M518.211 887.016L497 876.978L513 716.898L526.5 560.302C523.003 418.113 514.452 369.974 508.688 353.769C506.419 347.389 499.358 344.81 492.59 345.032C478.993 345.479 455.037 350.844 438.999 380.217C420.321 414.423 407 516.777 407 516.777L416.5 576.811L428.453 604.952C431.513 612.155 438.582 616.833 446.409 616.833C446.991 616.833 447.443 616.327 447.378 615.749L443 576.811L436 516.777L470.658 418.689C470.863 418.11 471.411 417.722 472.026 417.722C473.004 417.722 473.702 418.672 473.41 419.606L443.437 515.382C443.148 516.304 443.04 517.272 443.118 518.235L452 627.83L454 743.413L438.654 871.517C438.306 874.422 440.574 876.978 443.5 876.978V900H524L523.931 895.888C523.868 892.083 521.65 888.644 518.211 887.016Z" fill="black"/>
<path d="M480.252 340.974C484.291 342.097 491.64 341.981 493.552 341.818C493.552 341.818 502.159 340.992 507.008 338.633C512.473 335.975 515.437 333.586 518.848 328.603C521.178 325.199 522.734 319.533 523.401 316.742C523.664 315.638 523.815 314.516 523.906 313.385L525.96 287.788C525.96 287.788 526.155 284.108 525.942 281.767C525.434 276.198 524.395 272.994 521.692 268.085C518.917 263.043 516.646 260.413 512.065 256.882C507.181 253.117 503.764 251.585 497.74 250.136C493.062 249.012 490.249 248.791 485.447 249.172C480.312 249.797 478.423 250.289 473.641 252.245C468.865 254.317 464.097 257.667 460.572 261.387C457.047 265.106 454.722 269.347 453.036 274.092C451.349 278.837 450.793 283.324 451.227 288.303C451.392 290.181 451.795 292.407 452.255 294.236L459.498 318.691C459.853 319.89 460.279 321.064 460.814 322.195C462.133 324.984 464.897 330.474 467.352 333.068C470.722 336.629 475.421 339.631 480.252 340.974Z" fill="white"/>
<path d="M481.852 335.061C485.249 336.05 491.423 335.968 493.029 335.831C493.029 335.831 500.259 335.136 504.327 333.094C508.911 330.794 511.396 328.722 514.248 324.393C516.153 321.501 517.431 316.726 518.003 314.244C518.25 313.174 518.388 312.085 518.469 310.989L520.114 288.873C520.114 288.873 520.268 285.669 520.083 283.63C519.641 278.78 518.759 275.987 516.476 271.705C514.13 267.308 512.215 265.012 508.356 261.924C504.242 258.633 501.367 257.29 496.301 256.012C492.368 255.021 490.004 254.821 485.97 255.14C481.657 255.67 480.071 256.093 476.059 257.784C472.051 259.575 468.054 262.479 465.102 265.708C462.15 268.937 460.208 272.624 458.804 276.751C457.4 280.878 456.945 284.784 457.323 289.121C457.466 290.756 457.811 292.695 458.202 294.289L464.302 315.423C464.638 316.588 465.041 317.73 465.549 318.831C466.694 321.311 468.97 325.929 470.992 328.142C473.833 331.252 477.789 333.878 481.852 335.061Z" fill="black"/>
</svg>
